X: 41
T:Cat in the Kitchen
% Nottingham Music Database
S:Bob McQuillen Jan 1975, via Phil Rowe
M:6/8
K:Bm
F|"Bm"B2c dcB|"Em"e2f gfe|"Bm"fbb bag|"F#7"fgf edc|
"Bm"B2c dcB|"Em"e2f gfe|"Bm"fgf "F#7"edc|[1"Bm"dBB B2:|[2 "F#7"dBB B||
|:"A7"AG|"D"F2B "A7"ABc|"D"d2d "A"ede|"Bm"fBB Bcd|"A"cAA "G"BAG|
"F#m"F2B "A7"ABc|"D"dcd "A"ede|"Bm"fed "F#m"cBA|"Bm"FBB B:|


